X:26
T:Black Ewe. HA.027, The
M:C
L:1/8
Q:1/2=90
S:Henry Atkinson’s original MS,Hartburn,N’umberland,1694.
O:England
A:Hartburn,Northumberland
H:1/8
Z:vmp.Chris Partington.Jan.2004
K:G
g2|d3B (dB) (AG)|G4D4|E2G2B2 (AG)|”^min.”A6 g2|
d3B (dB) (AG)|G4D4|E2G2B2d2|”^min.”g6||
B2|c3d (ed) (ef)|”^cr”f3ed2(ef)|(ge)g2 B2 (AG)|”^min.”A6 g2|
d3B (dB) (AG)|(Bc)d2D4|E2G2B2d2|”^min.”g6|]

